X:1     %Music
T:King Herod and the Cock
B:C Sharp, English Folk Carols, 1911, Novello & Co Ltd.
F:http://www.folkinfo.org/songs
M:4/4     %Meter
L:1/8     %
K:Bb
D2 |G2 G2 B2 c2 |B2 G2 F2     
w:There was a star in Dav-id's land,   
D2 |G2 G2 B2 c2 |B6 
w: In Dav-id's land app-eared. 
(Bc) |d3 c d2 D2 | B4 c2 
w: And_ in King He-rod's bed-room 
(Bc) |d2 d2 (cB) A2 |G6 |]
w: So_ bright it did_ shine there.